X: 78
T: Piano Sonata no. 24 in F\# major, Allegro assai
C: Ludwig van Beethoven
%%abc-version 2.0
%%abcx-abcm2ps-target-version 5.9.1 (29 Sep 2008)
%%abc-creator hum2abc beta
%%abcx-conversion-date 2021/01/11 11:42:09
%%abc-edited-by Craig Stuart Sapp
%%abc-edited-by Craig Stuart Sapp
%%abcx-initial-encoding-date 2005/08/24
%%gracespace 0 6 6
%%humdrum-veritas 4059764860
%%humdrum-veritas-data 2691666658
%%linebreak <none>
%%barnumbers 0
L: 1/16
M: 2/4
Q: "Allegro assai" 1/4=120
%%staves {1 2}
V: 1 clef=treble
V: 2 clef=bass
K: F#
[V:1] [F6^B6][E2c2] | 
[V:2] [=D,6F,6][C,2G,2] | 
[V:1] [E2G2] z2 z2 [F2A2] | 
[V:2] [=B,,2C,2] z2 z2 [A,,2C,2] | 
[V:1] [D2=B2]>[C2A2] .[B,2G2].[A,2F2] | 
[V:2] G,,2>A,,2 .B,,2.^B,,2 | 
[V:1] [G,4E4]z4 | 
[V:2] C,4z4[K:clef=treble] | 
[V:1] [A6c6][B2d2] | 
[V:2] [=E6=G6][D2F2] | 
[V:1] [c4=e4]z2 [d2f2] | 
[V:2] [C4=E4]z2 [B,2D2][K:clef=bass] | 
[V:1] [=e2g2]>[c2e2] .[B2d2].[A2c2] | 
[V:2] G,2>C2x4 & =E,4.[F,2D2].[F,2=E2] | 
[V:1] [B4d4]z4 | 
[V:2] [B,4D4]z4 | 
[V:1] [F6B6][F2A2] | 
[V:2] D6C2 | 
[V:1] [F4d4]z2 [F2c2] | 
[V:2] B,4z2 A,2 | 
[V:1] B2>A2 .G2.c2 & F4.F2.^E2 | 
[V:2] G,2>A,2 .B,2.C,2 | 
[V:1] AF EF Bf Af | 
[V:2] F,2C2D2C2 | 
[V:1] df ef eg ec' | 
[V:2] B,2A,2G,2C,2 | 
[V:1] fa fc' fc' ac' | 
[V:2] F,2C,2A,,2C,2 | 
[V:1] ac' ac' gb ec' | 
[V:2] F,,2C,2C,,2C,2 | 
[V:1] af Af Bf Af | 
[V:2] F,,2C2D2C2 | 
[V:1] df cf eg ec' | 
[V:2] B,2A,2G,2C,2 | 
[V:1] fa fc' fc' ac' | 
[V:2] F,2C,2A,,2C,2 | 
[V:1] ac' ac' gb ec' | 
[V:2] F,,2C,2C,,2C,2 | 
[V:1] ac' [fa]c' fg f^b | 
[V:2] F,,2F,2D,,2D,2 | 
[V:1] fg fd' fg fd' | 
[V:2] ^B,,,2^B,,2G,,,2G,,2 | 
[V:1] [e2g2c'2] ^B,C z2 ^^DE | 
[V:2] [C,,2C,2] z2[K:clef=treble] ^B,C z2 | 
[V:1] z2 ^^FG z2 ^Bc | 
[V:2] ^^DE z2 ^^FG z2 | 
[V:1] z2 ^^de z2 ^^fg | 
[V:2] ^Bc z2 ^^de z2 | 
[V:1] z2 bc' z2 ^^d'e' | 
[V:2] ^^fg z2 bc' z2 | 
[V:1] z2 ^^f'g' z2 ^^d'e' | 
[V:2] ^^d'e' z2 ^bc' z2 | 
[V:1] z2 ^bc' z2 ^^fg | 
[V:2] ^^fg z2 ^^de z2 | 
[V:1] z2 ^^de z2 ^Bc | 
[V:2] ^Bc z2 ^^FG z2 | 
[V:1] z2 ^Bc z2 Bc | 
[V:2] ^^DE z2 ^B,C z2[K:clef=bass] | 
[V:1] z2 ^Bc z2 ^B,C | 
[V:2] ^B,C z2 ^B,,C, z2 | 
[V:1] z2 ^Bc z2 ^B,C | 
[V:2] ^B,C z2 ^B,,C, z2 | 
[V:1] [F6^B6][E2c2] | 
[V:2] [=D,6F,6][C,2G,2] | 
[V:1] [E4G4]z2 [F2A2] | 
[V:2] [=B,,4C,4]z2 [A,,2C,2] | 
[V:1] [D2=B2]>[C2A2] .[B,2G2].[A,2F2] | 
[V:2] G,,2>A,,2 .B,,2.^B,,2 | 
[V:1] [G,4E4]z4 | 
[V:2] C,4z4[K:clef=treble] | 
[V:1] [A6c6][B2d2] | 
[V:2] [=E6=G6][D2F2] | 
[V:1] [c4=e4]z2 [d2f2] | 
[V:2] [C4=E4]z2[K:clef=bass] [B,2D2] | 
[V:1] [=e2g2]>[c2e2] .[B2d2].[A2c2] | 
[V:2] G,2>C2x4 & =E,4.[F,2D2].[F,2=E2] | 
[V:1] [B4d4]z4 | 
[V:2] [B,4D4]z4 | 
[V:1] [F6B6][F2A2] | 
[V:2] D6C2 | 
[V:1] [F4d4]z2 [F2c2] | 
[V:2] B,4z2 A,2 | 
[V:1] B2>A2 .G2.c2 & F4.F2.^E2 | 
[V:2] G,2>A,2 .B,2.C,2 | 
[V:1] AF EF Bf Af | 
[V:2] F,2C2D2C2 | 
[V:1] df cf eg ec' | 
[V:2] B,2A,2G,2C,2 | 
[V:1] fa fc' fc' ac' | 
[V:2] F,2C,2A,,2C,2 | 
[V:1] ac' ac' gb ec' | 
[V:2] F,,2C,2C,,2C,2 | 
[V:1] af Af Bf Af | 
[V:2] F,,2C2D2C2 | 
[V:1] df cf eg ec' | 
[V:2] B,2A,2G,2C,2 | 
[V:1] fa fc' fa fd' | 
[V:2] F,2F,,2D,2D,,2 | 
[V:1] gd' fd' fd' fd' | 
[V:2] B,,2B,,,2^^G,,2^^G,,,2 | 
[V:1] [e2^^c'2] BA z2 AG | 
[V:2] [A,,,2A,,2] z2[K:clef=treble] AG z2 | 
[V:1] z2 GF z2 FE | 
[V:2] GF z2 FE z2 | 
[V:1] z2 ED z2 DC | 
[V:2] ED z2 DC z2[K:clef=bass] | 
[V:1] z2 CB, z2 B,A, | 
[V:2] CB, z2 B,A, z2 | 
[V:1] z2 A,^^G, z2 A,^G, | 
[V:2] A,^^G, z2 A,^G, z2 | 
[V:1] z2[K:clef=bass] A,F, z2 A,E,[K:clef=treble] | 
[V:2] A,F, z2 A,E, z2 | 
[V:1] z2 A,D D^^F FA | 
[V:2] D,,2 .^^F,2.A,2.D2[K:clef=treble] | 
[V:1] Ad d^^f fa ad' | 
[V:2] .^^F2.A2.d2.^^f2 | 
[V:1] ^^f'2 ^FA DA FA | 
[V:2] a2[K:clef=bass] D,2^F,2D,2 | 
[V:1] DA FA GA EA | 
[V:2] F,2D,2^E,2^^C,2 & x4A,,4 | 
[V:1] z2 A,D D^^F FA | 
[V:2] D,,2 .^^F,2.A,2.D2[K:clef=treble] | 
[V:1] Ad d^^f fa ad' | 
[V:2] .^^F2.A2.d2^^f2 | 
[V:1] ^^f'2 ^FA DA FA | 
[V:2] a2[K:clef=bass] D,2^F,2D,2 | 
[V:1] DA FA GA EA | 
[V:2] F,2D,2E,2^^C,2 & x4A,,4 | 
[V:1] DF Fd E^^c ce | 
[V:2] D,2D,2A,2A,,2 | 
[V:1] Fd df ^^ce eg | 
[V:2] D,2D,,2A,,2A,,,2 | 
[V:1] Fd df ^^ce eg | 
[V:2] D,2D,2A,2A,,2 | 
[V:1] df fd' e^^c' ge' | 
[V:2] D,2D,,2A,,2A,,,2 | 
[V:1] DF Fd E^^c ce | 
[V:2] D,2D,2A,2A,,2 | 
[V:1] Fd df ^^ce eg | 
[V:2] D,2D,,2A,,2A,,,2 | 
[V:1] Fd df ^^ce eg | 
[V:2] D,,2D,2A,2A,,2 | 
[V:1] df fd' =ef f=e' | 
[V:2] D,2D,,2C,2C,,2 | 
[V:1] df bd' bd' bd' | 
[V:2] B,,2B,,,2B,,2B,,,2 | 
[V:1] [=f2b2=d'2=f'2] z2 z2 ^A,B, | 
[V:2] [=G,,,2=G,,2] z2z4 | 
[V:1] z2 A,B, z2 C=D | 
[V:2] A,B, z2 C=D z2[K:clef=treble] | 
[V:1] z2 =E=F z2 AB | 
[V:2] =E=F z2 AB z2 | 
[V:1] z2 c=d z2 =e=f | 
[V:2] c=d z2 =e=f z2 | 
[V:1] z2 ab z2 c'=d' | 
[V:2] ab z2 c'=d' z2 | 
[V:1] z2 =e'=f' z2 =d'f' | 
[V:2] c'=d' z2 bd' z2 | 
[V:1] z2 =e'=f' z2 =d'f' | 
[V:2] c'=d' z2 bd' z2 | 
[V:1] z2 =e'=f' z2 =d'f' | 
[V:2] c'=d' z2 ab z2 | 
[V:1] z2 =d'=f' z2 =e=f | 
[V:2] f=g z2 =e=f z2 | 
[V:1] z2 =e=f z2 =df | 
[V:2] c=d z2 AB z2 | 
[V:1] z2 =e=f z2 =df | 
[V:2] c=d z2 AB z2 | 
[V:1] z2 =e=f z2 =df | 
[V:2] c=d z2 ab z2 | 
[V:1] z2 =d=f z2 df | 
[V:2] c'=d' z2 ab z2 | 
[V:1] z2 c'=d' z2 ab | 
[V:2] c=d z2 AB z2 | 
[V:1] z2 c'=d' z2 ab | 
[V:2] c=d z2 AB z2 | 
[V:1] [^e6b6^e'6][f2a2f'2] | 
[V:2] [=G6B6][F2A2c2] | 
[V:1] [f2a2c'2] z2 z2[K:clef=bass] [B,2^D2] | 
[V:2] [F2A2c2] z2 z2[K:clef=bass] B,,,2 | 
[V:1] [G,2=E2]>[F,2D2] .[=E,2C2].[D,2B,2] | 
[V:2] C,,2>D,,2 .=E,,2.^E,,2 | 
[V:1] [C,4A,4]z4[K:clef=treble] | 
[V:2] F,,4z4[K:clef=treble] | 
[V:1] [d6f6b6d'6][=e2g2b2=e'2] | 
[V:2] [=A6B6][G2B2] | 
[V:1] [f4=a4d'4f'4]z2[K:clef=bass] [G,2B,2] | 
[V:2] [F4=A4B4]z2[K:clef=bass] =E,,2 | 
[V:1] [A,2C2]>[F,2=A,2] .[=E,2G,2].[D,2F,2] | 
[V:2] =A,,,2>=A,,2 .B,,2.B,,,2 | 
[V:1] [=E,4G,4]z4[K:clef=treble] | 
[V:2] =E,,4z4[K:clef=treble] | 
[V:1] [=e6b6=e'6][d2b2d'2] | 
[V:2] [G6B6][F2B2] | 
[V:1] [g2b2g'2] z2 z2 [F2B,2F,2] | 
[V:2] [=E2B2] z2 z2[K:clef=bass] D,,2 | 
[V:1] =E2>D2 .[G,2B,2C2].[A,2F2] | 
[V:2] [G,4B,4]x4 & C,,2>D,,2 .=E,,2.F,,2 | 
[V:1] DB, A,B, =EB DB | 
[V:2] B,,2F,2G,2F,2 | 
[V:1] GB FB Ac Af | 
[V:2] =E,2D,2C,2F,,2 | 
[V:1] Bd Bf Bf df | 
[V:2] B,,2F,,2D,,2F,,2 | 
[V:1] df df c=e Af | 
[V:2] B,,,2F,,2F,,,2F,,2 | 
[V:1] dB DB =EB DB | 
[V:2] B,,2F,2G,2F,2 | 
[V:1] GB FB Ac Af | 
[V:2] =E,2D,2C,2F,,2 | 
[V:1] Bd Bf Bf =df | 
[V:2] B,,2F,,2=D,,2F,,2 | 
[V:1] =db db [c^e]b [cg]b | 
[V:2] B,,,2F,,2C,,2E,,2 | 
[V:1] [cf]=a [cf]a [cf]a [cf]a | 
[V:2] F,,2C,2=A,,2C,2 | 
[V:1] [cf]=a [=Ac]f [Fc]f [F^B]f | 
[V:2] F,,2F,2=D,,2=D,2 | 
[V:1] [E2c2e2] c=B z2 B=A | 
[V:2] [C,,2C,2] z2[K:clef=treble] B=A z2 | 
[V:1] z2 =AG z2 GF | 
[V:2] =AG z2 GF z2 | 
[V:1] z2 F^E z2 E=D | 
[V:2] F^E z2 E=D z2 | 
[V:1] z2 =DC z2 C^B, | 
[V:2] =DC z2 C^B, z2[K:clef=bass] | 
[V:1] z2 C^B, z2 C=B, | 
[V:2] C^B, z2 C=B, z2 | 
[V:1] z2 C=A, z2 CG, | 
[V:2] C=A, z2 CG, z2 | 
[V:1] z2 CF FA Ac | 
[V:2] F,,2 .^A,2[K:clef=treble].C2.F2 | 
[V:1] cf fa ac' c'f' | 
[V:2] .A2.c2.f2.a2 | 
[V:1] a'2 =Ac Fc Ac | 
[V:2] c'2[K:clef=bass] F,2=A,2F,2 | 
[V:1] Fc =Ac Bc Gc | 
[V:2] =A,2F,2G,2E,2 & x4C,4 | 
[V:1] z2 CF F^A Ac | 
[V:2] F,,2 .^A,2[K:clef=treble].C2.F2 | 
[V:1] cf fa ac' c'f' | 
[V:2] .A2.c2.f2.a2 | 
[V:1] a'2 =Ac Fc Ac | 
[V:2] c'2[K:clef=bass] F,2=A,2F,2 | 
[V:1] Fc =Ac Bc Gc | 
[V:2] =A,2F,2G,2E,2 & x4C,4 | 
[V:1] F=A Af Ge eg | 
[V:2] F,2F,2C2C,2 | 
[V:1] =Af f=a eg gb | 
[V:2] F,2F,,2C,2C,,2 | 
[V:1] Af f=a eg gb | 
[V:2] F,,2 F,2C2C,2 | 
[V:1] f=a af' ge' bg' | 
[V:2] F,2F,,2C,2C,,2 | 
[V:1] F=A Af Ge eg | 
[V:2] F,2F,2C2C,2 | 
[V:1] =Af f=a eg gb | 
[V:2] F,2F,,2C,2C,,2 | 
[V:1] =Af f=a eg gb | 
[V:2] F,2F,2C2C,2 | 
[V:1] f=a af' fa af' | 
[V:2] F,2F,,2=E,2=E,,2 | 
[V:1] f=a af' fa af' | 
[V:2] =D,2=D,,2D,2D,,2 | 
[V:1] [f2=a2=c'2f'2] z2 z2 B,=C | 
[V:2] [=D,,2=D,2] z2z4 | 
[V:1] z2 B,=C z2 ^EF | 
[V:2] B,=C z2[K:clef=treble] ^EF z2 | 
[V:1] z2 G=A z2 B=c | 
[V:2] G=A z2 B=c z2 | 
[V:1] z2 ef z2 g=a | 
[V:2] ef z2 g=a z2 | 
[V:1] z2 b=c' z2 e'f' | 
[V:2] b=c' z2 e'f' z2 | 
[V:1] z2 g'=a' z2 e'f' | 
[V:2] g'=a' z2 e'f' z2 | 
[V:1] z2 g'=a' z2 e'f' | 
[V:2] b=c' z2 g=a z2 | 
[V:1] z2 b=c' z2 =ac' | 
[V:2] g=a z2 ef z2 | 
[V:1] z2 b=c' z2 bc' | 
[V:2] B=c z2 G=A z2 | 
[V:1] z2 =a=c' z2 bc' | 
[V:2] EF z2 G=A z2 | 
[V:1] z2 =a=c' z2 B=c | 
[V:2] F=A z2 g=a z2 | 
[V:1] z2 =A=c z2 Bc | 
[V:2] ef z2 g=a z2 | 
[V:1] z2 =A=c z2 Bc | 
[V:2] ef z2 g=a z2 | 
[V:1] z2 =A=c z2 Ac | 
[V:2] ef z2 g=a z2 | 
[V:1] z2 =A=c z2 Ac | 
[V:2] ef z2 g=a z2 | 
[V:1] z2 g=a z2 b=c' | 
[V:2] G=A z2 B=c z2 | 
[V:1] z2 g=a z2 b=c' | 
[V:2] G=A z2 B=c z2 | 
[V:1] [^B6f6^b6][c2e2c'2] | 
[V:2] [=D6F6][C2E2G2] | 
[V:1] [c4e4g4]z2[K:clef=bass] [C,2^A,2] | 
[V:2] [C4E4G4]z2[K:clef=bass] F,,2 | 
[V:1] [D,2B,2]>[C,2A,2] [B,,2G,2][A,,2F,2] | 
[V:2] B,,,2>C,,2 D,,2^B,,,2 | 
[V:1] [G,,4E,4]z4[K:clef=treble] | 
[V:2] C,,4z4[K:clef=treble] | 
[V:1] [c6a6c'6][d2b2d'2] | 
[V:2] [C6=E6F6][B,2D2F2] | 
[V:1] [=e4c'4=e'4]z2[K:clef=bass] [D,2F,2] | 
[V:2] [A,4C4F4]z2[K:clef=bass] B,,,2 | 
[V:1] [=E,2G,2]>[C,2E,2] [B,,2D,2][A,,2C,2] | 
[V:2] =E,,2>C,,2 F,,2F,,2 | 
[V:1] [B,,4D,4]z4[K:clef=treble] | 
[V:2] B,,,4z4[K:clef=treble] | 
[V:1] [B6b6][A2a2] | 
[V:2] [D6F6][C2F2] | 
[V:1] [d4d'4]z2[K:clef=bass] [F,2C2] | 
[V:2] [B,4F4]z2[K:clef=bass] A,,2 | 
[V:1] B,2>A,2 G,2C2 & F,6E,2 | 
[V:2] G,,2>A,,2 B,,2C,2 | 
[V:1] [F,6A,6][F,2D2] | 
[V:2] F,,2>G,,2 A,,2B,,2 | 
[V:1] B,2>A,2 G,2C2 & F,6E,2 | 
[V:2] G,,2>A,,2 B,,2C,2 | 
[V:1] [F,6A,6][K:clef=treble][D2F2F,2] | 
[V:2] F,,2>G,,2 A,,2B,,2 | 
[V:1] =E2>D2 C2F2 | 
[V:2] [F,6A,6][A,2C2] & C,2>D,2 =E,2F,2 | 
[V:1] [A,4C4=E4]z2 [A2=e2f2] | 
[V:2] G,2>A,2B,2C2[K:clef=treble] | 
[V:1] f2>=e2 d2f2 & [B6d6]d2 | 
[V:2] D2>=E2 F2B2 | 
[V:1] g2>f2^e2g2 & [B6c6]e2 | 
[V:2] ^E2>F2G2c2 | 
[V:1] g2>f2e2c'2 | 
[V:2] E2>F2G2c2 | 
[V:1] a2>g2f2c'2 | 
[V:2] F2>G2A2c2 | 
[V:1] g2>f2e2c'2 | 
[V:2] E2>F2G2c2 | 
[V:1] f2>e2d2c'2 | 
[V:2] D2>E2F2c2 | 
[V:1] e2>d2[c2c'2][c2b2] | 
[V:2] C2>D2E2[E2G2] | 
[V:1] b2>a2g2 c2 & c6B2 | 
[V:2] [E2G2]>[F2A2][G2B2][K:clef=bass] [E,2G,2] | 
[V:1] c4.c2.c2 & B2>A2 [G2B2][F2A2] | 
[V:2] [E,2G,2]>[F,2A,2] .[G,2B,2].[A,2C2] | 
[V:1] [E8G8c8] | 
[V:2] !fermata![B,8C8] | 
[V:1] !fermata![F8=A8d8] | 
[V:2] !fermata![=A,8=C8] | 
[V:1] x4x4x4(5:4:15EGBce CEGBc egbc'e' !fermata!z2 | 
[V:2] (5:4:15^C,,E,,G,,B,,C, E,G,B,CE C,E,G,B,Cx4x4x4!fermata!z2 | 
[V:1] =A,F A,F A,F ^A,F | 
[V:2] =C,6^C,2 & F,,8- | 
[V:1] B,E DB GB Ec | 
[V:2] D,2B,,2E,2C,2 & F,,8 | 
[V:1] =Af Af Af ^Af | 
[V:2] =C6^C2 & F,8- | 
[V:1] Bf db gb [gb]c' | 
[V:2] D2B,2E2C2 & F,8 | 
[V:1] fa ac' ac' [gb]e' | 
[V:2] .F2.C2.F,2.C,2 | 
[V:1] .[f2a2f'2] z2z4 |]  
[V:2] .F,,2 z2z4 |]  


